tools/download-figma-icons/icons/solid/phone.svg

<svg width="24" height="24" viewBox="0 0 24 24" fill="none" xmlns="http://www.w3.org/2000/svg">
<path fill-rule="evenodd" clip-rule="evenodd" d="M22.1856 22.2253C19.3169 25.094 13.0432 24.9928 6.01578 17.9773C-1.0004 10.9507 -1.1009 4.67697 1.76782 1.8075C4.36655 -0.780726 5.82528 0.0735156 6.21228 0.397512C6.79052 0.890257 8.12176 2.60324 9.0975 4.53372C10.2165 6.7447 9.3255 7.43394 7.85101 8.57993L7.44827 8.89793C6.98177 9.26992 6.90677 9.56617 6.89627 9.75742C6.83852 10.7707 8.40751 12.4889 9.95624 14.0369C11.505 15.5849 13.2232 17.1553 14.2357 17.0968C14.4269 17.0856 14.7239 17.0121 15.0952 16.5456L15.4132 16.1429C16.5592 14.6684 17.2484 13.7766 19.4601 14.8964C21.3899 15.8714 23.1029 17.2033 23.5964 17.7808C23.9203 18.1686 24.7738 19.6266 22.1856 22.2253Z" fill="black"/>
</svg>

<svg xmlns="http://www.w3.org/2000/svg" width="24" height="24" fill="none" viewBox="0 0 24 24"><path fill="currentColor" fill-rule="evenodd" d="M22.186 22.225c-2.87 2.869-9.143 2.768-16.17-4.248C-1 10.951-1.101 4.677 1.768 1.807 4.367-.78 5.825.075 6.212.398c.579.493 1.91 2.206 2.886 4.137 1.118 2.21.227 2.9-1.247 4.046l-.403.318c-.466.372-.541.668-.552.86-.057 1.013 1.512 2.73 3.06 4.279s3.267 3.118 4.28 3.06c.19-.011.488-.085.86-.551l.317-.403c1.146-1.475 1.835-2.366 4.047-1.247 1.93.975 3.643 2.307 4.136 2.885.324.388 1.178 1.846-1.41 4.444" clip-rule="evenodd"/></svg>
